tools/download-figma-icons/icons/solid/price-guarantee.svg

<svg width="24" height="24" viewBox="0 0 24 24" fill="none" xmlns="http://www.w3.org/2000/svg">
<path fill-rule="evenodd" clip-rule="evenodd" d="M14.3166 10.2959C14.6579 10.1834 14.9969 10.0139 15.3246 9.78889C15.6681 9.55489 16.1339 9.64339 16.3679 9.98389C16.6011 10.3259 16.5141 10.7916 16.1729 11.0256C15.7274 11.3309 15.2609 11.5641 14.7846 11.7201C14.2146 11.9076 13.6296 11.9999 13.0521 11.9999C11.6009 11.9999 10.1886 11.4231 9.12435 10.3454C8.5206 9.73414 8.09085 9.01339 7.8246 8.24689H6.74835C6.33435 8.24689 5.99835 7.91239 5.99835 7.49764C5.99835 7.08364 6.33435 6.74764 6.74835 6.74764H7.5201C7.50285 6.49789 7.50285 6.24739 7.51935 5.99764H6.74835C6.33435 5.99764 5.99835 5.66239 5.99835 5.24839C5.99835 4.83439 6.33435 4.49839 6.74835 4.49839H7.8246C8.09085 3.73189 8.5206 3.01114 9.12435 2.39914C11.0039 0.494143 13.9671 0.205393 16.1721 1.71139C16.5141 1.94539 16.6019 2.41189 16.3679 2.75389C16.1346 3.09514 15.6674 3.18289 15.3254 2.94964C13.7211 1.85389 11.5619 2.06539 10.1924 3.45214C9.88335 3.76564 9.6531 4.12414 9.46335 4.49839H11.9984C12.4131 4.49839 12.7484 4.83439 12.7484 5.24839C12.7484 5.66239 12.4131 5.99764 11.9984 5.99764H9.03435C9.0126 6.24814 9.0126 6.49714 9.03435 6.74764H11.9984C12.4131 6.74764 12.7484 7.08364 12.7484 7.49764C12.7484 7.91239 12.4131 8.24689 11.9984 8.24689H9.46485C9.6531 8.62114 9.88335 8.97889 10.1924 9.29164C11.2776 10.3911 12.8571 10.7766 14.3166 10.2959ZM12.3375 23.9172L22.8525 18.7947C23.865 18.3005 24.285 17.0772 23.79 16.0647C23.295 15.053 22.0725 14.6247 21.06 15.1205L19.035 16.1105L19.0365 16.1318C19.0435 16.2287 19.05 16.3194 19.05 16.4172C19.05 18.0747 17.7075 19.4172 16.05 19.4172H9.105C8.6925 19.4172 8.355 19.0805 8.355 18.6672C8.355 18.2547 8.6925 17.9172 9.105 17.9172H16.05C16.8825 17.9172 17.55 17.243 17.55 16.4172C17.55 15.7272 17.085 15.143 16.4475 14.9697C16.3725 14.9472 16.2825 14.9397 16.2 14.933H16.17C16.1325 14.9172 16.095 14.9172 16.05 14.9172H11.475C11.0175 14.0697 9.78 12.5397 6.7125 12.5397H0.75C0.3375 12.5397 0 12.8772 0 13.2897V19.748C0 20.0772 0.21 20.3705 0.525 20.4672L11.775 23.963C11.7825 23.9697 11.7975 23.9697 11.8125 23.9697C11.8725 23.993 11.9325 23.9997 12 23.9997C12.1125 23.9997 12.225 23.9772 12.33 23.9255L12.3375 23.9172Z" fill="black"/>
</svg>

<svg xmlns="http://www.w3.org/2000/svg" width="24" height="24" fill="none" viewBox="0 0 24 24"><path fill="currentColor" fill-rule="evenodd" d="M14.317 10.296c.34-.113.68-.282 1.008-.507a.75.75 0 0 1 .848 1.237 5.5 5.5 0 0 1-3.12.974 5.5 5.5 0 0 1-3.929-1.655 5.6 5.6 0 0 1-1.3-2.098H6.749a.75.75 0 1 1 0-1.5h.772q-.026-.375 0-.75h-.772a.75.75 0 1 1 0-1.499h1.077a5.6 5.6 0 0 1 1.3-2.099 5.52 5.52 0 0 1 7.047-.688.75.75 0 1 1-.847 1.239 4.02 4.02 0 0 0-5.133.502 4.1 4.1 0 0 0-.729 1.046h2.535a.75.75 0 1 1 0 1.5H9.034q-.032.375 0 .75h2.964a.75.75 0 1 1 0 1.499H9.465c.188.374.418.732.727 1.045a4 4 0 0 0 4.125 1.004m-1.98 13.621 10.516-5.122a2.044 2.044 0 0 0-1.793-3.674l-2.025.99.002.02a3 3 0 0 1-2.986 3.285H9.104a.75.75 0 0 1-.75-.749c0-.412.338-.75.75-.75h6.945a1.5 1.5 0 0 0 1.5-1.5 1.5 1.5 0 0 0-1.102-1.447 1.3 1.3 0 0 0-.248-.037h-.03c-.038-.016-.075-.016-.12-.016h-4.575c-.457-.847-1.695-2.377-4.762-2.377H.75a.75.75 0 0 0-.75.75v6.458c0 .33.21.622.525.72l11.25 3.495q.013.009.037.007c.06.023.12.03.188.03a.74.74 0 0 0 .33-.075z" clip-rule="evenodd"/></svg>
